; generated by PrusaSlicer 2.5.0+win64 on 2022-10-21 at 11:51:25 UTC


;
;

;
;
; 

; external perimeters extrusion width = 0.45mm
; perimeters extrusion width = 0.45mm
; infill extrusion width = 0.45mm
; solid infill extrusion width = 0.45mm
; top infill extrusion width = 0.40mm
; first layer extrusion width = 0.42mm

M73 P0 R56
M201 X2500 Y2500 Z400 E5000 ; sets maximum accelerations, mm/sec^2
M203 X180 Y180 Z12 E80 ; sets maximum feedrates, mm / sec
M204 P1250 R1250 T2500 ; sets acceleration (P, T) and retract acceleration (R), mm/sec^2
M205 X8.00 Y8.00 Z2.00 E10.00 ; sets the jerk limits, mm/sec
M205 S0 T0 ; sets the minimum extruding and travel feed rate, mm/sec
M107
;TYPE:Custom
M862.3 P "MINI" ; printer model check
G90 ; use absolute coordinates
M83 ; extruder relative mode
M104 S170 ; set extruder temp for bed leveling
M140 S60 ; set bed temp
M109 R170 ; wait for bed leveling temp
M190 S60 ; wait for bed temp
M204 T1250 ; set travel acceleration
G28 ; home all without mesh bed level
G29 ; mesh bed leveling 
M204 T2500 ; restore travel acceleration
M104 S215 ; set extruder temp
G92 E0
G1 Y-2 X179 F2400
G1 Z3 F720
M109 S215 ; wait for extruder temp

; intro line
G1 X170 F1000
G1 Z0.2 F720
G1 X110 E8 F900
G1 X40 E10 F700
G92 E0

M221 S95 ; set flow
G21 ; set units to millimeters
G90 ; use absolute coordinates
M83 ; use relative distances for extrusion
M900 K0.2 ; Filament gcode LA 1.5
; ; Filament gcode LA 1.0
M107
;LAYER_CHANGE
;Z:0.2
;HEIGHT:0.2
;BEFORE_LAYER_CHANGE
G92 E0.0
;0.2


M73 P0 R55
G1 E-3.2 F4200
G1 Z.2 F720
;AFTER_LAYER_CHANGE
;0.2
G1 Z.4
G1 X68.402 Y66.752 F9000
G1 Z.2 F720
G1 E3.2 F2400
M204 P800
;TYPE:Skirt/Brim
;WIDTH:0.42
G1 F1200
G1 X69.894 Y65.259 E.06619
G1 X71.675 Y64.02 E.06801
G1 X81.185 Y59.495 E.33024
G1 X82.192 Y59.085 E.03408
G1 X83.619 Y58.681 E.0465
G1 X85.052 Y58.459 E.04546
G1 X86.272 Y58.405 E.03828
G1 X96.708 Y58.852 E.32752
G1 X97.869 Y59.012 E.03676
G1 X99.315 Y59.38 E.04677
G1 X100.34 Y59.762 E.03429
G1 X101.4 Y60.275 E.03694
G1 X109.987 Y65.253 E.31121
G1 X110.897 Y65.849 E.03408
G1 X112.039 Y66.794 E.04651
G1 X113.071 Y67.889 E.04716
G1 X113.931 Y69.059 E.04552
G1 X119.153 Y77.358 E.30745
G1 X120.071 Y79.213 E.06489
G1 X120.527 Y80.639 E.04694
G1 X120.817 Y82.226 E.0506
G1 X121.613 Y92.286 E.3164
G1 X121.625 Y93.582 E.04063
G1 X121.507 Y94.792 E.03813
G1 X121.193 Y96.263 E.04716
G1 X120.718 Y97.635 E.04552
G1 X116.635 Y107.114 E.3236
G1 X115.595 Y108.817 E.06257
G1 X114.935 Y109.642 E.03314
G1 X114.109 Y110.497 E.03727
G1 X105.788 Y117.29 E.3368
G1 X104.709 Y118.019 E.04081
G1 X103.445 Y118.675 E.04466
G1 X102.328 Y119.108 E.03756
G1 X101.055 Y119.454 E.04136
G1 X91.501 Y121.383 E.30562
G1 X90.018 Y121.573 E.04686
G1 X88.389 Y121.562 E.05107
G1 X86.457 Y121.262 E.06131
G1 X76.275 Y118.293 E.33254
G1 X75.186 Y117.859 E.03677
G1 X73.884 Y117.164 E.04626
G1 X72.937 Y116.518 E.03595
G1 X71.929 Y115.667 E.04137
G1 X64.623 Y108.605 E.31857
G1 X63.86 Y107.715 E.03676
G1 X62.999 Y106.44 E.04825
G1 X62.493 Y105.483 E.03396
G1 X62.055 Y104.429 E.03578
G1 X58.929 Y95.008 E.31121
G1 X58.562 Y93.559 E.04686
G1 X58.379 Y92.004 E.04909
G1 X58.371 Y90.895 E.0348
G1 X58.475 Y89.721 E.03694
G1 X60.085 Y79.927 E.31121
G1 X60.319 Y78.866 E.03408
G1 X60.762 Y77.55 E.04354
G1 X61.429 Y76.156 E.04843
G1 X62.094 Y75.098 E.03919
G1 X68.366 Y66.8 E.32612
M204 P1000
; printing object StressSpider.STL id:0 copy 0
G1 E-2.24 F4200
;WIPE_START
G1 F7200
G1 X69.525 Y65.632 E-.912
;WIPE_END
G1 E-.048 F4200
G1 Z.4 F720
G1 X103.562 Y66.228 F9000
G1 Z.2 F720
G1 E3.2 F2400
M204 P800
;TYPE:External perimeter
;WIDTH:0.519841
G1 F1200
G1 X103.769 Y66.377 E.01012
G1 X104.128 Y66.554 E.01585
;WIDTH:0.517397
G1 X104.576 Y66.698 E.01856
;WIDTH:0.519517
G1 X105.021 Y66.762 E.01782
;WIDTH:0.52989
G1 X105.768 Y66.787 E.03028
G1 X106.344 Y66.859 E.0235
;WIDTH:0.522846
G1 X106.996 Y67.016 E.02677
;WIDTH:0.522364
G1 X107.577 Y67.221 E.02455
;WIDTH:0.519625
G1 X108.256 Y67.537 E.02968
G1 X108.9 Y67.918 E.02969
G1 X109.527 Y68.372 E.03064
;WIDTH:0.519037
G1 X110.114 Y68.881 E.03078
;WIDTH:0.518774
G1 X110.734 Y69.525 E.03535
;WIDTH:0.518352
G1 X111.241 Y70.158 E.03208
;WIDTH:0.518886
G1 X111.719 Y70.879 E.03423
;WIDTH:0.519036
G1 X112.108 Y71.618 E.03309
;WIDTH:0.519582
G1 X112.349 Y72.212 E.0254
G1 X112.557 Y72.961 E.0308
;WIDTH:0.516385
G1 X112.656 Y73.569 E.02424
;WIDTH:0.516852
G1 X112.74 Y74.512 E.0373
;WIDTH:0.51851
G1 X112.884 Y74.993 E.01988
;WIDTH:0.519842
G1 X113.095 Y75.414 E.01864
G1 X113.33 Y75.737 E.01585
;WIDTH:0.517397
G1 X113.66 Y76.072 E.01856
;WIDTH:0.519517
G1 X114.024 Y76.336 E.01782
;WIDTH:0.52989
G1 X114.674 Y76.705 E.03028
G1 X115.151 Y77.036 E.0235
;WIDTH:0.523556
G1 X115.654 Y77.48 E.02681
G1 X116.065 Y77.92 E.02406
;WIDTH:0.522773
G1 X116.518 Y78.512 E.02975
;WIDTH:0.523853
G1 X116.915 Y79.154 E.0302
;WIDTH:0.524662
G1 X117.254 Y79.833 E.03039
G1 X117.531 Y80.53 E.03003
;WIDTH:0.523516
G1 X117.779 Y81.348 E.03418
;WIDTH:0.521692
G1 X117.945 Y82.167 E.03324
;WIDTH:0.521916
G1 X118.04 Y83.057 E.03566
G1 X118.042 Y83.93 E.03478
;WIDTH:0.519374
G1 X117.979 Y84.571 E.0255
G1 X117.82 Y85.332 E.03081
;WIDTH:0.518158
G1 X117.622 Y85.911 E.02419
;WIDTH:0.516586
G1 X117.347 Y86.526 E.02653
;WIDTH:0.518892
G1 X117.211 Y86.967 E.01826
G1 X117.151 Y87.426 E.01831
;WIDTH:0.519335
G1 X117.162 Y87.857 E.01707
;WIDTH:0.52327
G1 X117.329 Y88.532 E.02781
;WIDTH:0.529073
G1 X117.56 Y88.991 E.02077
G1 X117.897 Y89.53 E.02566
;WIDTH:0.51909
G1 X118.275 Y90.28 E.03326
;WIDTH:0.519725
G1 X118.553 Y91.082 E.03367
;WIDTH:0.525871
G1 X118.665 Y91.585 E.02069
G1 X118.743 Y92.08 E.02011
;WIDTH:0.521874
G1 X118.791 Y92.952 E.03478
;WIDTH:0.513909
G1 X118.77 Y93.618 E.02612
;WIDTH:0.514576
G1 X118.665 Y94.542 E.03647
;WIDTH:0.519669
G1 X118.456 Y95.514 E.0394
G1 X118.285 Y96.05 E.0223
;WIDTH:0.527799
G1 X118.083 Y96.57 E.02249
G1 X117.846 Y97.065 E.02213
;WIDTH:0.512257
G1 X117.402 Y97.848 E.03511
;WIDTH:0.520239
G1 X117.057 Y98.344 E.024
G1 X116.38 Y99.065 E.03924
;WIDTH:0.517259
G1 X115.728 Y99.593 E.03308
;WIDTH:0.518646
G1 X115.315 Y100.037 E.02399
G1 X115.097 Y100.384 E.01622
;WIDTH:0.519611
G1 X114.902 Y100.853 E.02013
;WIDTH:0.521976
G1 X114.8 Y101.341 E.01984
G1 X114.782 Y101.822 E.01915
;WIDTH:0.515861
G1 X114.846 Y102.636 E.03214
;WIDTH:0.530656
G1 X114.838 Y103.226 E.02393
G1 X114.785 Y103.731 E.02058
;WIDTH:0.51949
G1 X114.58 Y104.612 E.03585
;WIDTH:0.526254
G1 X114.406 Y105.134 E.02212
G1 X114.181 Y105.667 E.02322
;WIDTH:0.522402
G1 X113.901 Y106.213 E.02447
;WIDTH:0.530783
G1 X113.509 Y106.843 E.03012
G1 X113.07 Y107.446 E.03026
;WIDTH:0.523696
G1 X112.444 Y108.154 E.03774
;WIDTH:0.527978
G1 X112.022 Y108.556 E.02353
G1 X111.535 Y108.968 E.02572
;WIDTH:0.522965
G1 X110.819 Y109.463 E.03477
;WIDTH:0.525121
G1 X110.261 Y109.772 E.02553
G1 X109.754 Y110 E.02229
;WIDTH:0.520283
G1 X108.856 Y110.256 E.03706
;WIDTH:0.519635
G1 X108.246 Y110.378 E.02468
G1 X107.656 Y110.594 E.02492
;WIDTH:0.517572
G1 X107.227 Y110.859 E.0199
G1 X106.876 Y111.174 E.01861
;WIDTH:0.517395
G1 X106.58 Y111.544 E.01869
;WIDTH:0.519517
G1 X106.362 Y111.938 E.01782
;WIDTH:0.529886
G1 X106.074 Y112.628 E.03028
G1 X105.803 Y113.14 E.0235
;WIDTH:0.522845
G1 X105.424 Y113.694 E.02677
;WIDTH:0.522319
G1 X105.001 Y114.193 E.02607
;WIDTH:0.520822
G1 X104.483 Y114.683 E.02833
;WIDTH:0.523999
G1 X103.616 Y115.353 E.04383
;WIDTH:0.524506
G1 X102.936 Y115.762 E.03176
G1 X102.244 Y116.102 E.03088
;WIDTH:0.52283
G1 X101.529 Y116.381 E.03065
G1 X100.8 Y116.599 E.03035
;WIDTH:0.522245
G1 X100.068 Y116.754 E.02983
;WIDTH:0.521545
G1 X99.308 Y116.843 E.03045
;WIDTH:0.519618
G1 X98.663 Y116.856 E.02558
;WIDTH:0.520378
G1 X97.859 Y116.787 E.03204
G1 X97.29 Y116.664 E.02308
;WIDTH:0.517126
G1 X96.647 Y116.465 E.02653
;WIDTH:0.516907
G1 X96.271 Y116.392 E.0151
G1 X95.802 Y116.375 E.01851
;WIDTH:0.517706
G1 X95.357 Y116.431 E.0177
;WIDTH:0.518954
G1 X94.939 Y116.553 E.01724
;WIDTH:0.521159
G1 X94.535 Y116.748 E.01786
;WIDTH:0.529226
G1 X93.279 Y117.679 E.0632
;WIDTH:0.529816
G1 X92.848 Y117.939 E.02038
G1 X92.344 Y118.18 E.02261
;WIDTH:0.519655
G1 X91.639 Y118.428 E.02964
;WIDTH:0.528452
G1 X91.122 Y118.558 E.0215
G1 X90.547 Y118.668 E.02365
;WIDTH:0.519626
G1 X89.769 Y118.743 E.03099
;WIDTH:0.522835
G1 X88.686 Y118.736 E.04319
G1 X87.911 Y118.656 E.0311
;WIDTH:0.526185
G1 X87.399 Y118.563 E.02091
G1 X86.905 Y118.438 E.02048
;WIDTH:0.526542
G1 X86.404 Y118.296 E.02098
G1 X85.901 Y118.099 E.0217
;WIDTH:0.514257
G1 X85.177 Y117.764 E.03129
;WIDTH:0.514917
G1 X84.468 Y117.319 E.03281
G1 X83.992 Y116.928 E.02417
;WIDTH:0.516078
G1 X83.296 Y116.276 E.03753
G1 X82.853 Y116.005 E.02042
;WIDTH:0.518401
G1 X82.368 Y115.82 E.02053
;WIDTH:0.51889
G1 X81.963 Y115.74 E.01635
G1 X81.483 Y115.724 E.01903
;WIDTH:0.529738
G1 X80.508 Y115.903 E.04011
;WIDTH:0.519089
G1 X79.673 Y115.991 E.03326
G1 X78.775 Y115.96 E.03558
G1 X77.898 Y115.797 E.03529
;WIDTH:0.525222
G1 X77.258 Y115.625 E.02658
G1 X76.768 Y115.45 E.02088
;WIDTH:0.524867
G1 X76.014 Y115.106 E.03319
G1 X75.364 Y114.74 E.02989
;WIDTH:0.52416
G1 X74.673 Y114.272 E.03341
;WIDTH:0.520475
G1 X74.284 Y113.951 E.02003
;WIDTH:0.527612
G1 X73.856 Y113.577 E.02293
G1 X73.48 Y113.184 E.02191
;WIDTH:0.512259
G1 X72.906 Y112.491 E.03511
;WIDTH:0.520236
G1 X72.564 Y111.992 E.024
G1 X72.13 Y111.103 E.03926
;WIDTH:0.517173
G1 X71.893 Y110.381 E.02999
;WIDTH:0.515568
G1 X71.585 Y109.744 E.0278
;WIDTH:0.520255
G1 X71.269 Y109.347 E.02015
G1 X70.922 Y109.042 E.01835
;WIDTH:0.521564
G1 X70.568 Y108.822 E.01659
G1 X70.103 Y108.627 E.02005
;WIDTH:0.519081
G1 X69.352 Y108.416 E.03087
;WIDTH:0.519516
G1 X68.823 Y108.208 E.02254
G1 X68.209 Y107.885 E.02751
;WIDTH:0.519732
G1 X67.684 Y107.537 E.02496
;WIDTH:0.527049
G1 X67.273 Y107.206 E.02125
G1 X66.911 Y106.858 E.0202
;WIDTH:0.518411
G1 X66.336 Y106.264 E.03271
;WIDTH:0.519541
G1 X65.877 Y105.671 E.02972
;WIDTH:0.519734
G1 X65.454 Y105.018 E.03085
G1 X65.033 Y104.208 E.03618
;WIDTH:0.517334
G1 X64.705 Y103.397 E.03451
;WIDTH:0.51569
G1 X64.484 Y102.665 E.03004
G1 X64.332 Y101.902 E.03061
;WIDTH:0.520451
G1 X64.265 Y101.304 E.02388
G1 X64.264 Y100.665 E.02539
;WIDTH:0.518271
G1 X64.324 Y100.114 E.02188
;WIDTH:0.517775
G1 X64.432 Y99.523 E.02373
;WIDTH:0.519494
G1 X64.459 Y99.141 E.0152
G1 X64.43 Y98.738 E.01602
;WIDTH:0.519849
G1 X64.328 Y98.29 E.01822
G1 X64.179 Y97.925 E.01565
;WIDTH:0.517224
G1 X63.941 Y97.521 E.01846
;WIDTH:0.519634
G1 X63.647 Y97.173 E.01806
;WIDTH:0.529893
G1 X63.104 Y96.658 E.03031
G1 X62.72 Y96.223 E.0235
;WIDTH:0.522848
G1 X62.337 Y95.672 E.02677
;WIDTH:0.522319
G1 X62.02 Y95.1 E.02607
;WIDTH:0.520821
G1 X61.746 Y94.442 E.02832
;WIDTH:0.523999
G1 X61.426 Y93.394 E.04383
;WIDTH:0.524504
G1 X61.286 Y92.613 E.03176
G1 X61.214 Y91.845 E.03088
;WIDTH:0.523123
G1 X61.205 Y91.054 E.03159
;WIDTH:0.519412
G1 X61.264 Y90.286 E.03052
;WIDTH:0.519302
G1 X61.417 Y89.403 E.03551
;WIDTH:0.517028
G1 X61.662 Y88.547 E.03509
;WIDTH:0.516191
G1 X61.877 Y88.015 E.02258
;WIDTH:0.517775
G1 X62.18 Y87.416 E.02653
G1 X62.489 Y86.956 E.02187
G1 X62.86 Y86.483 E.02373
;WIDTH:0.519489
G1 X63.061 Y86.157 E.01519
G1 X63.223 Y85.786 E.01602
;WIDTH:0.519853
G1 X63.34 Y85.342 E.01822
G1 X63.378 Y84.949 E.01565
;WIDTH:0.517223
G1 X63.355 Y84.482 E.01846
;WIDTH:0.519635
G1 X63.257 Y84.037 E.01807
;WIDTH:0.529892
G1 X63.015 Y83.328 E.03031
G1 X62.878 Y82.764 E.0235
;WIDTH:0.522845
G1 X62.794 Y82.099 E.02677
;WIDTH:0.522362
G1 X62.779 Y81.483 E.02455
;WIDTH:0.519628
G1 X62.834 Y80.736 E.02968
G1 X62.962 Y79.998 E.02969
G1 X63.164 Y79.252 E.03064
;WIDTH:0.519039
G1 X63.432 Y78.522 E.03078
;WIDTH:0.518774
G1 X63.814 Y77.714 E.03535
;WIDTH:0.518352
G1 X64.226 Y77.015 E.03208
;WIDTH:0.518889
M73 P1 R55
G1 X64.73 Y76.313 E.03423
;WIDTH:0.519037
G1 X65.284 Y75.687 E.03309
;WIDTH:0.519237
G1 X65.758 Y75.248 E.02558
;WIDTH:0.520383
G1 X66.406 Y74.767 E.03204
G1 X66.913 Y74.482 E.02309
;WIDTH:0.517128
G1 X67.527 Y74.204 E.02659
;WIDTH:0.516933
G1 X67.857 Y74.009 E.01511
G1 X68.222 Y73.708 E.01861
;WIDTH:0.518217
G1 X68.527 Y73.358 E.01835
;WIDTH:0.518758
G1 X68.743 Y73.011 E.01622
;WIDTH:0.520175
G1 X68.926 Y72.577 E.01865
;WIDTH:0.529616
G1 X69.108 Y71.59 E.04063
;WIDTH:0.520754
G1 X69.328 Y70.745 E.03471
G1 X69.528 Y70.248 E.02127
;WIDTH:0.518435
G1 X69.98 Y69.409 E.03768
;WIDTH:0.519984
G1 X70.643 Y68.501 E.0446
;WIDTH:0.530791
G1 X71.143 Y67.964 E.02978
G1 X71.549 Y67.583 E.02259
;WIDTH:0.517312
G1 X72.002 Y67.214 E.02303
;WIDTH:0.524551
G1 X72.418 Y66.905 E.02074
G1 X72.97 Y66.552 E.02625
;WIDTH:0.524133
G1 X73.652 Y66.189 E.03091
;WIDTH:0.518281
G1 X74.144 Y65.972 E.02126
G1 X74.993 Y65.693 E.03532
;WIDTH:0.520456
G1 X75.58 Y65.551 E.02398
G1 X76.562 Y65.468 E.03913
;WIDTH:0.512513
G1 X77.371 Y65.498 E.03161
;WIDTH:0.517068
G1 X77.789 Y65.477 E.01649
;WIDTH:0.517331
G1 X78.321 Y65.351 E.02158
;WIDTH:0.51755
G1 X78.787 Y65.142 E.02017
;WIDTH:0.526111
G1 X79.23 Y64.82 E.02197
G1 X79.601 Y64.441 E.02131
;WIDTH:0.515568
G1 X80.07 Y63.817 E.03068
;WIDTH:0.516975
G1 X80.546 Y63.304 E.02761
;WIDTH:0.519726
G1 X81.198 Y62.759 E.03368
;WIDTH:0.525857
G1 X81.628 Y62.475 E.02069
G1 X82.063 Y62.227 E.0201
;WIDTH:0.521555
G1 X82.746 Y61.923 E.02975
;WIDTH:0.51586
G1 X83.28 Y61.719 E.02251
G1 X84.383 Y61.429 E.04486
;WIDTH:0.525303
G1 X85.368 Y61.282 E.03991
G1 X86.276 Y61.244 E.03648
;WIDTH:0.527104
G1 X86.868 Y61.272 E.02383
G1 X87.4 Y61.331 E.02158
;WIDTH:0.52861
G1 X87.943 Y61.431 E.02227
G1 X88.768 Y61.679 E.03479
;WIDTH:0.513137
G1 X89.622 Y62.071 E.03676
;WIDTH:0.523761
G1 X90.138 Y62.372 E.02388
G1 X90.747 Y62.618 E.02627
;WIDTH:0.517692
G1 X91.242 Y62.703 E.01982
G1 X91.704 Y62.699 E.01825
;WIDTH:0.517222
G1 X92.169 Y62.62 E.01858
;WIDTH:0.519633
G1 X92.599 Y62.469 E.01806
;WIDTH:0.529892
G1 X93.273 Y62.143 E.03031
G1 X93.816 Y61.939 E.0235
;WIDTH:0.522846
G1 X94.467 Y61.776 E.02677
;WIDTH:0.522319
G1 X95.114 Y61.683 E.02606
;WIDTH:0.520817
G1 X95.826 Y61.66 E.02833
;WIDTH:0.528811
G1 X96.92 Y61.735 E.04427
G1 X97.867 Y61.92 E.039
;WIDTH:0.519507
G1 X98.465 Y62.089 E.02463
G1 X99.317 Y62.415 E.03616
;WIDTH:0.517331
G1 X100.1 Y62.804 E.03447
;WIDTH:0.516191
G1 X100.749 Y63.204 E.02998
G1 X101.368 Y63.671 E.03054
G1 X101.789 Y64.061 E.02257
;WIDTH:0.517873
G1 X102.242 Y64.557 E.02654
G1 X102.563 Y65.009 E.02188
;WIDTH:0.517738
G1 X102.873 Y65.522 E.02366
;WIDTH:0.519434
G1 X103.106 Y65.826 E.01518
G1 X103.392 Y66.106 E.01587
;WIDTH:0.519841
G1 X103.513 Y66.193 E.00592
M204 P1000
G1 E-2.24 F4200
;WIPE_START
G1 F7200
G1 X103.769 Y66.377 E-.1747
G1 X104.128 Y66.554 E-.22146
G1 X104.576 Y66.698 E-.26072
G1 X105.021 Y66.762 E-.24924
G1 X105.031 Y66.762 E-.00588
;WIPE_END
G1 E-.048 F4200
G1 Z.4 F720
G1 X90.485 Y118.194 F9000
G1 Z.2 F720
G1 E3.2 F2400
M204 P800
;WIDTH:0.519529
G1 F1200
G1 X89.791 Y118.267 E.02766
;WIDTH:0.519189
G1 X88.916 Y118.271 E.03465
;WIDTH:0.51947
G1 X87.964 Y118.182 E.0379
G1 X87.014 Y117.981 E.03846
;WIDTH:0.512867
G1 X86.112 Y117.68 E.03714
;WIDTH:0.52321
G1 X85.616 Y117.458 E.02171
;WIDTH:0.524079
G1 X84.943 Y117.07 E.03109
G1 X84.449 Y116.701 E.02466
;WIDTH:0.522329
G1 X83.896 Y116.171 E.03056
;WIDTH:0.525044
G1 X83.393 Y115.765 E.02592
G1 X82.904 Y115.505 E.02218
;WIDTH:0.524514
G1 X82.418 Y115.339 E.02059
;WIDTH:0.52041
G1 X81.938 Y115.259 E.01931
;WIDTH:0.519173
G1 X81.43 Y115.248 E.02012
;WIDTH:0.519894
G1 X80.477 Y115.426 E.03842
;WIDTH:0.520119
G1 X79.732 Y115.516 E.02979
G1 X78.879 Y115.493 E.03385
;WIDTH:0.525696
G1 X78.359 Y115.411 E.02113
G1 X77.409 Y115.167 E.03937
;WIDTH:0.525222
G1 X76.603 Y114.861 E.03458
;WIDTH:0.516727
G1 X75.826 Y114.462 E.03442
;WIDTH:0.517743
G1 X75.025 Y113.939 E.03777
G1 X74.613 Y113.614 E.02069
;WIDTH:0.527612
G1 X73.84 Y112.885 E.04284
;WIDTH:0.524947
G1 X73.489 Y112.473 E.0217
G1 X73.01 Y111.809 E.03279
;WIDTH:0.519754
G1 X72.591 Y110.982 E.03676
G1 X72.346 Y110.265 E.03005
;WIDTH:0.530287
G1 X72.176 Y109.826 E.01909
G1 X71.922 Y109.391 E.02041
;WIDTH:0.522595
G1 X71.554 Y108.963 E.02251
;WIDTH:0.518322
G1 X71.147 Y108.619 E.02107
G1 X70.685 Y108.349 E.02114
;WIDTH:0.516128
G1 X70.23 Y108.172 E.01923
;WIDTH:0.519137
